app/assets/v2/images/products/gitcoin-logo.svg

<svg width="31" height="38" viewBox="0 0 31 38" fill="none" xmlns="http://www.w3.org/2000/svg">
<path fill-rule="evenodd" clip-rule="evenodd" d="M26.0712 32L24.1622 30.2451C25.5678 28.8688 26.342 27.0552 26.342 25.1384C26.342 23.1377 25.5087 21.2681 23.9957 19.8738L23 18.956L24.0679 18L24.9776 18.9146L25.8478 18.0648C27.8806 19.9382 29 22.4504 29 25.1384C29 27.714 27.9598 30.1507 26.0712 32Z" fill="#0FCE7C"/>
<path fill-rule="evenodd" clip-rule="evenodd" d="M26.0712 32L24.1622 30.2451C25.5678 28.8688 26.342 27.0552 26.342 25.1384C26.342 23.1377 25.5087 21.2681 23.9957 19.8738L23 18.956L24.0679 18L24.9776 18.9146L25.8478 18.0648C27.8806 19.9382 29 22.4504 29 25.1384C29 27.714 27.9598 30.1507 26.0712 32Z" stroke="#0FCE7C" stroke-width="0.5"/>
<path fill-rule="evenodd" clip-rule="evenodd" d="M28 16L20 24L28 16Z" fill="#15003E"/>
<path fill-rule="evenodd" clip-rule="evenodd" d="M19.7368 19.4795C20.194 20.2093 20.4601 21.0735 20.4601 21.9999C20.4601 23.0476 20.121 24.0163 19.5481 24.8004L27.8326 31.1153V38H15.5431V37.9932C6.9494 37.8535 0 30.7352 0 21.9999C0 13.1777 7.08757 6 15.7995 6C20.0201 6 23.9876 7.66424 26.9719 10.6866L28 11.7275L23.5395 15.9855L23.5077 15.9514L19.7368 19.4795ZM25.0085 35.1401H15.7995C8.64474 35.1401 2.82385 29.2454 2.82385 21.9999C2.82385 14.7544 8.64474 8.8599 15.7995 8.8599C18.7699 8.8599 21.588 9.86398 23.8756 11.7135L17.5538 17.6286C17.0117 17.4048 16.4199 17.2804 15.7995 17.2804C13.2298 17.2804 11.1392 19.3975 11.1392 21.9999C11.1392 24.6022 13.2298 26.7196 15.7995 26.7196C16.2572 26.7196 16.6988 26.6513 17.1168 26.5264L25.0085 32.5424V35.1401ZM15.7995 23.8597C14.7869 23.8597 13.963 23.0253 13.963 21.9999C13.963 20.9744 14.7869 20.1401 15.7995 20.1401C16.8124 20.1401 17.6363 20.9744 17.6363 21.9999C17.6363 23.0253 16.8124 23.8597 15.7995 23.8597Z" fill="white"/>
<path fill-rule="evenodd" clip-rule="evenodd" d="M31 5.0001L30.0001 6L29 5.0001L30.0001 4L31 5.0001Z" fill="#25E899"/>
<path fill-rule="evenodd" clip-rule="evenodd" d="M23 5L22 6L21 5L22 4L23 5Z" fill="#25E899"/>
<path fill-rule="evenodd" clip-rule="evenodd" d="M28 1.00014C28 0.448075 27.5522 0 26.9999 0C26.4478 0 26 0.448075 26 1.00014C26 1.55221 26.4478 2 26.9999 2C27.5522 2 28 1.55221 28 1.00014Z" fill="#25E899"/>
<path fill-rule="evenodd" clip-rule="evenodd" d="M11.0001 16C10.4478 16 10 15.5038 10 14.8918V3.10816C10 2.4964 10.4478 2 11.0001 2C11.5522 2 12 2.4964 12 3.10816V14.8918C12 15.5038 11.5522 16 11.0001 16Z" fill="white"/>
<path fill-rule="evenodd" clip-rule="evenodd" d="M18 10V5.01979C18 4.45659 17.5522 4 17.0001 4C16.4478 4 16 4.45659 16 5.01979V9.8959C16.5709 9.86919 17.2697 9.88106 18 10Z" fill="white"/>
</svg>

<svg width="31" height="38" viewBox="0 0 31 38" fill="none" xmlns="http://www.w3.org/2000/svg"><path fill-rule="evenodd" clip-rule="evenodd" d="M26.071 32l-1.909-1.755c1.406-1.376 2.18-3.19 2.18-5.107 0-2-.833-3.87-2.346-5.264L23 18.956 24.068 18l.91.915.87-.85C27.88 19.938 29 22.45 29 25.138c0 2.576-1.04 5.013-2.929 6.862z" fill="#0FCE7C"/><path clip-rule="evenodd" d="M26.071 32l-1.909-1.755c1.406-1.376 2.18-3.19 2.18-5.107 0-2-.833-3.87-2.346-5.264L23 18.956 24.068 18l.91.915.87-.85C27.88 19.938 29 22.45 29 25.138c0 2.576-1.04 5.013-2.929 6.862z" stroke="#0FCE7C" stroke-width=".5"/><path fill-rule="evenodd" clip-rule="evenodd" d="M28 16l-8 8 8-8z" fill="#15003E"/><path fill-rule="evenodd" clip-rule="evenodd" d="M19.737 19.48c.457.73.723 1.593.723 2.52 0 1.048-.339 2.016-.912 2.8l8.285 6.315V38h-12.29v-.007C6.95 37.853 0 30.735 0 22 0 13.178 7.088 6 15.8 6c4.22 0 8.188 1.664 11.172 4.687L28 11.727l-4.46 4.258-.032-.034-3.771 3.529zm5.272 15.66h-9.21C8.646 35.14 2.825 29.245 2.825 22c0-7.246 5.82-13.14 12.976-13.14 2.97 0 5.788 1.004 8.076 2.854l-6.322 5.915a4.585 4.585 0 0 0-1.754-.349c-2.57 0-4.66 2.117-4.66 4.72 0 2.602 2.09 4.72 4.66 4.72.457 0 .899-.069 1.317-.194l7.892 6.016v2.598zm-9.21-11.28c-1.012 0-1.836-.835-1.836-1.86 0-1.026.824-1.86 1.837-1.86 1.012 0 1.836.834 1.836 1.86 0 1.025-.824 1.86-1.836 1.86z" fill="#fff"/><path fill-rule="evenodd" clip-rule="evenodd" d="M31 5l-1 1-1-1 1-1 1 1zM23 5l-1 1-1-1 1-1 1 1zM28 1a1 1 0 1 0-2 0 1 1 0 0 0 2 0z" fill="#25E899"/><path fill-rule="evenodd" clip-rule="evenodd" d="M11 16c-.552 0-1-.496-1-1.108V3.108C10 2.496 10.448 2 11 2s1 .496 1 1.108v11.784c0 .612-.448 1.108-1 1.108zM18 10V5.02A1.01 1.01 0 0 0 17 4c-.552 0-1 .457-1 1.02v4.876A9.735 9.735 0 0 1 18 10z" fill="#fff"/></svg>
